!!!SOCIAL_FUNCTION:	songs of war
!!!PDT:	1913
!!!OTL: No_45_Song_When_Offering_the_Peace_Pipe.krn
!!!REG: Great_Lakes
!!!LANG: Non-Tone
!!!LING_GROUP: Algonquin
**kern
*staff1
*clefF4
*k[f#]
*M2/4
16e\
=1
8.e\L
16e\Jk
4d\
=2||
*M3/4
4B\
4B\
8.B\L
16e\Jk
=3||
*M2/4
8.e\L
16e\Jk
4d\
=4||
*M3/4
4B\
4B\
8.B\L
16d\Jk
=5||
*M2/4
8.d\L
16B\Jk
8.B\L
16B\Jk
=6
8.A\L
16G\Jk
8.G\L
16A\Jk
=7
8.G\L
16E\Jk
4E\
=8
4D\
8.BB/L
16E/Jk
=9
4E\
4D\
=10
8BB/L
8D/J
8.BB/L
16BB/Jk
=11
2BB/
==
*-
